svg/calendar_edit_outline.svg

<svg xmlns="http://www.w3.org/2000/svg" viewBox="0 0 24 24"><path d="m21.7 13.35-1 1-2.05-2 1-1c.2-.21.54-.22.77 0l1.28 1.28c.19.2.19.52 0 .72M12 18.94V21h2.06l6.06-6.12-2.05-2zM5 19h5v2H5a2 2 0 0 1-2-2V5c0-1.1.9-2 2-2h1V1h2v2h8V1h2v2h1a2 2 0 0 1 2 2v4H5zM5 5v2h14V5z"/></svg>

<svg xmlns="http://www.w3.org/2000/svg" id="mdi-calendar-edit-outline" viewBox="0 0 24 24"><path d="M21.7 13.35L20.7 14.35L18.65 12.35L19.65 11.35C19.85 11.14 20.19 11.13 20.42 11.35L21.7 12.63C21.89 12.83 21.89 13.15 21.7 13.35M12 18.94V21H14.06L20.12 14.88L18.07 12.88L12 18.94M5 19H10V21H5C3.9 21 3 20.11 3 19V5C3 3.9 3.9 3 5 3H6V1H8V3H16V1H18V3H19C20.11 3 21 3.9 21 5V9H5V19M5 5V7H19V5H5Z" /></svg>
